!! 00000] TT[WS
!!!OTL: Mai cai
!!!ARE: Asia, China, Shanxi Jingle
!! Ethnic Group: Han
!! WII, 50 (1)
!!!SCT: J0468
!!!YEM: Copyright 1995, estate of Helmut Schaffrath.
**kern
*ICvox
*Ivox
*M2/4
*k[b-]
*F:
{8dd
8dd
8cc
8dd
=1
8cc
8dd
8ff
8dd
=2
[4cc
8.cc]
16a
=3
8dd
16dd
16dd
8cc
8dd
=4
8cc
8a
4g}
=5
{8.f
16g
8a
8a
=6
8.cc
16a
8.cc
16dd
=7
8f
8d
4c
=8
4cc
8a
8cc
=9
8g
4f
8d
=10
2c}
==
!!!AGN: Xiaodiao. Maimai, Qingge
!!!ONB: ESAC (Essen Associative Code) Database: CHINA
!!!AMT: simple duple
!!!AIN: vox
!!!EED: Helmut Schaffrath
!!!EEV: 1.0
*-
